X:12415
T:On this cold flinty Rock. CJF.040
M:6/8
L:1/8
Q:80
C:Braham
S: C.J.Fox MS, 1829/33, Beverley,E.Yorks.
R:Air
O:England
A:East Yorkshire
B:Kidson Coll.Mitchell Lib.M1805
Z:P J Headford 2000
K:D
A|ddd dcd|{^d}e2ee2e|f>ff fga|e3-e2e|!
edc cBe|ecf {e}d2c|fFd ce ^G|A3-A2A|!
(BG)dd2B|AF dd2A|f>ef gB{f/}e|(d3c2)A|!
(d/c/)(B/A/) (G/F/)E2A|d(c/d/e/f/)hg2e|f>ed A>Bc|{e}d3z2||
